resource/g6.svg

<?xml version="1.0" encoding="UTF-8"?>
<svg width="45mm" height="45mm" version="1.1" viewBox="0 0 45 45" xmlns="http://www.w3.org/2000/svg">
 <g transform="translate(0,-252)">
  <g transform="matrix(.35278 0 0 -.35278 -111.94 362.85)">
   <g transform="translate(381.08 270.76)">
    <path d="m0 0 38.34 5.686 8.437-71.939-46.777-10.236-46.775 10.236 8.438 71.939z" fill="#216a16" fill-rule="evenodd"/>
   </g>
   <g transform="translate(381.08 270.76)">
    <path d="m0 0v-76.489l-46.775 10.237 8.438 71.939z" fill="#238913" fill-rule="evenodd"/>
   </g>
   <g transform="translate(381.08 290.49)">
    <path d="m0 0 3.37-19.234-3.37-16.951-46.666 7.991 2.282 20.314z" fill="#238913" fill-rule="evenodd"/>
   </g>
   <g transform="translate(425.46 282.61)">
    <path d="m0 0-44.387-6.617v-21.688l46.669 7.99z" fill="#216a16" fill-rule="evenodd"/>
   </g>
   <g transform="translate(381.08 275.99)">
    <path d="m0 0-44.384 6.617 44.384 7.88 44.387-7.88z" fill="#34a722" fill-rule="evenodd"/>
   </g>
   <g transform="translate(421.68 257.14)">
    <path d="m0 0-0.475 4.037-40.13-6.87v-4.33z" fill="#17540e" fill-rule="evenodd"/>
   </g>
   <g transform="translate(381.08 254.31)">
    <path d="m0 0-40.128 6.87-0.433-3.692 40.561-7.508z" fill="#216a16" fill-rule="evenodd"/>
   </g>
   <g transform="translate(365.18 278.37)">
    <path d="M 0,0 15.9,2.887 31.802,0 44.608,1.908 25.624,5.99 39.648,7.91 30.05,9.614 15.9,8.112 1.753,9.614 -7.846,7.91 6.178,5.99 -12.805,1.908 Z" fill="#f1ce41" fill-rule="evenodd"/>
   </g>
   <g transform="translate(352.92 255.19)">
    <path d="m0 0-4.677-53.737 13.377-2.927 4.152 54.283zm-1.004 19.893-1.358-15.55 2.699-0.463 10.338-1.769 1.19 15.873 0.39 5.193-12.805 1.908z" fill="#efb735" fill-rule="evenodd"/>
   </g>
   <g transform="translate(397.37 273.17)">
    <path d="m0 0 1.191-15.873 10.338 1.769 2.698 0.463-1.357 15.551-0.454 5.192-12.806-1.909zm-0.975-20.495 4.14-54.153 13.377 2.927-4.655 53.495z" fill="#e5a21c" fill-rule="evenodd"/>
   </g>
   <g transform="translate(414.53 298.21)">
    <path d="m0 0s-17.467 1.86-28.424-9.723c-1.542-1.631-3.834-3.142-5.012-5.367l-2.277 4.475c3.852 10.092 13.81 17.89 25.956 19.02 4.617-1.739 6.252-4.109 9.757-8.405" fill="#f1ce41" fill-rule="evenodd"/>
   </g>
   <g transform="translate(414.54 298.21)">
    <path d="m 0,0 c 0,0 -4.572,-18.425 -33.437,-15.09 1.122,2.122 2.444,3.951 3.9,5.529 C -18.607,2.287 0,0 0,0" fill="#e5a21c" fill-rule="evenodd"/>
   </g>
   <g transform="translate(403.59 297.82)">
    <path d="m0 0c-1.892-4.687-11.001-8.158-17.157-7.747 5.187 4.804 11.705 6.888 17.157 7.747" fill="#f9f9f6" fill-rule="evenodd"/>
   </g>
   <g transform="translate(413.9 296.48)">
    <path d="m0 0c-4.239 0.212-7.987 0.137-11.237-0.221 0.392 0.502 0.704 1.024 0.921 1.563 6.152 0.969 10.948 0.379 10.948 0.379s-0.165-0.665-0.632-1.721" fill="#c87a12" fill-rule="evenodd"/>
   </g>
   <g transform="translate(387.36 289.03)">
    <path d="m0 0c-1.95-1.885-3.573-3.905-4.871-6.062-0.456 0.042-0.919 0.091-1.389 0.146 1.122 2.121 2.444 3.951 3.9 5.53 0.132 0.144 0.267 0.286 0.402 0.425 0.336 0.349 0.68 0.684 1.03 1.006 0.415-0.03 0.845-0.037 1.286-0.032 0.252 4e-3 0.51 0.014 0.769 0.029-0.388-0.343-0.762-0.69-1.127-1.042" fill="#c87a12" fill-rule="evenodd"/>
   </g>
   <g transform="translate(414.31 265.06)">
    <path d="m0 0c-10.137 16.757-31.822 17.912-31.822 17.912 0.712 1.392 3.019 4.025 3.498 4.536 9.967 2.22 24.443-2.81 32.235-11.291-1.079-4.086-2.444-7.175-3.911-11.157" fill="#f1ce41" fill-rule="evenodd"/>
   </g>
   <g transform="translate(347.62 298.21)">
    <path d="m0 0s17.467 1.86 28.425-9.723c1.541-1.631 3.833-3.142 5.011-5.367l2.277 4.475c-3.852 10.092-13.809 17.89-25.956 19.02-4.617-1.739-6.252-4.109-9.757-8.405" fill="#f1ce41" fill-rule="evenodd"/>
   </g>
   <g transform="translate(347.62 298.21)">
    <path d="m 0,0 c 0,0 4.572,-18.425 33.437,-15.09 -1.122,2.122 -2.444,3.951 -3.9,5.529 C 18.607,2.287 0,0 0,0" fill="#e5a21c" fill-rule="evenodd"/>
   </g>
   <g transform="translate(358.57 297.82)">
    <path d="M 0,0 C 1.892,-4.687 11.001,-8.158 17.157,-7.747 11.97,-2.943 5.452,-0.859 0,0" fill="#f9f9f6" fill-rule="evenodd"/>
   </g>
   <g transform="translate(348.25 296.48)">
    <path d="m0 0c4.24 0.212 7.987 0.137 11.238-0.221-0.392 0.502-0.704 1.024-0.921 1.563-6.152 0.969-10.948 0.379-10.948 0.379s0.164-0.665 0.631-1.721" fill="#c87a12" fill-rule="evenodd"/>
   </g>
   <g transform="translate(374.8 289.03)">
    <path d="m0 0c1.95-1.885 3.573-3.905 4.871-6.062 0.456 0.042 0.919 0.091 1.389 0.146-1.122 2.121-2.444 3.951-3.9 5.53-0.132 0.144-0.267 0.286-0.402 0.425-0.336 0.349-0.68 0.684-1.03 1.006-0.415-0.03-0.845-0.037-1.286-0.032-0.252 4e-3 -0.51 0.014-0.769 0.029 0.387-0.343 0.762-0.69 1.127-1.042" fill="#c87a12" fill-rule="evenodd"/>
   </g>
   <g transform="translate(347.84 265.06)">
    <path d="m0 0c10.137 16.757 31.822 17.912 31.822 17.912-0.712 1.392-3.019 4.025-3.498 4.536-9.967 2.22-24.443-2.81-32.235-11.291 1.079-4.086 2.443-7.175 3.911-11.157" fill="#f1ce41" fill-rule="evenodd"/>
   </g>
   <g transform="translate(396.07 256.88)">
    <path d="m0 0 0.321-4.195 12.862 2.268-0.358 4.122-10.338-1.769z" fill="#c87a12" fill-rule="evenodd"/>
   </g>
   <g transform="translate(352.92 255.19)">
    <path d="m0 0 12.852-2.381 0.31 4.066-2.487 0.426-10.338 1.769z" fill="#e5a21c" fill-rule="evenodd"/>
   </g>
   <g transform="translate(366.08 228.45)">
    <path d="m0 0c4.498-0.386 6.436-3.042 6.41-7.252 0.384 4.499 3.04 6.436 7.25 6.409-4.499 0.385-6.436 3.041-6.408 7.25-0.386-4.499-3.042-6.435-7.252-6.407m-24.783 17.859c3.263-0.449 4.577-2.457 4.402-5.523 0.446 3.263 2.454 4.577 5.523 4.401-3.266 0.448-4.579 2.456-4.402 5.522-0.448-3.264-2.457-4.577-5.523-4.4m-2.005-13.353c3.801-0.524 5.33-2.86 5.127-6.434 0.519 3.802 2.858 5.332 6.43 5.128-3.801 0.52-5.331 2.859-5.124 6.43-0.523-3.801-2.861-5.331-6.433-5.124m-1.652-15.301c3.801-0.524 5.331-2.862 5.125-6.433 0.522 3.801 2.861 5.329 6.433 5.125-3.803 0.521-5.332 2.86-5.125 6.431-0.523-3.802-2.861-5.329-6.433-5.123m27.416-7.288c4.498-0.386 6.436-3.041 6.41-7.252 0.384 4.499 3.04 6.436 7.249 6.41-4.498 0.385-6.435 3.04-6.407 7.251-0.386-4.499-3.043-6.436-7.252-6.409m2.579 33.895c3.862-0.33 5.527-2.611 5.503-6.226 0.331 3.863 2.612 5.526 6.227 5.502-3.863 0.332-5.527 2.613-5.504 6.227-0.331-3.863-2.611-5.526-6.226-5.503" fill="#f5f4eb" fill-rule="evenodd"/>
   </g>
   <g transform="translate(396.34 228.45)">
    <path d="m0 0c-4.497-0.386-6.436-3.042-6.41-7.252-0.385 4.499-3.041 6.436-7.25 6.409 4.498 0.385 6.435 3.041 6.408 7.25 0.385-4.499 3.042-6.435 7.252-6.407m24.783 17.859c-3.264-0.449-4.578-2.457-4.402-5.523-0.447 3.263-2.455 4.577-5.523 4.401 3.265 0.448 4.578 2.456 4.402 5.522 0.447-3.264 2.456-4.577 5.523-4.4m2.004-13.353c-3.8-0.524-5.33-2.86-5.125-6.434-0.521 3.802-2.86 5.332-6.432 5.128 3.801 0.52 5.331 2.859 5.124 6.43 0.523-3.801 2.861-5.331 6.433-5.124m1.653-15.301c-3.802-0.524-5.332-2.862-5.126-6.433-0.522 3.801-2.859 5.329-6.431 5.125 3.801 0.521 5.33 2.86 5.123 6.431 0.524-3.802 2.862-5.329 6.434-5.123m-27.416-7.288c-4.497-0.386-6.436-3.041-6.41-7.252-0.385 4.499-3.041 6.436-7.25 6.41 4.499 0.385 6.435 3.04 6.408 7.251 0.385-4.499 3.042-6.436 7.252-6.409m-2.579 33.895c-3.862-0.33-5.527-2.611-5.504-6.226-0.331 3.863-2.612 5.526-6.226 5.502 3.863 0.332 5.527 2.613 5.503 6.227 0.331-3.863 2.611-5.526 6.227-5.503" fill="#f5f4eb" fill-rule="evenodd"/>
   </g>
  </g>
 </g>
</svg>

<?xml version="1.0" encoding="UTF-8" standalone="no"?>
<!-- Created with Inkscape (http://www.inkscape.org/) -->

<svg
   xmlns:dc="http://purl.org/dc/elements/1.1/"
   xmlns:cc="http://creativecommons.org/ns#"
   xmlns:rdf="http://www.w3.org/1999/02/22-rdf-syntax-ns#"
   xmlns:svg="http://www.w3.org/2000/svg"
   xmlns="http://www.w3.org/2000/svg"
   xmlns:sodipodi="http://sodipodi.sourceforge.net/DTD/sodipodi-0.dtd"
   xmlns:inkscape="http://www.inkscape.org/namespaces/inkscape"
   width="45mm"
   height="45mm"
   viewBox="0 0 45 45"
   version="1.1"
   id="svg2965"
   inkscape:version="0.92.3 (2405546, 2018-03-11)"
   sodipodi:docname="g5.svg">
  <defs
     id="defs2959" />
  <sodipodi:namedview
     id="base"
     pagecolor="#ffffff"
     bordercolor="#666666"
     borderopacity="1.0"
     inkscape:pageopacity="0.0"
     inkscape:pageshadow="2"
     inkscape:zoom="1.979899"
     inkscape:cx="-4.1117179"
     inkscape:cy="92.343565"
     inkscape:document-units="mm"
     inkscape:current-layer="layer1"
     showgrid="false"
     units="mm"
     width="50mm"
     inkscape:window-width="958"
     inkscape:window-height="1023"
     inkscape:window-x="0"
     inkscape:window-y="0"
     inkscape:window-maximized="0" />
  <metadata
     id="metadata2962">
    <rdf:RDF>
      <cc:Work
         rdf:about="">
        <dc:format>image/svg+xml</dc:format>
        <dc:type
           rdf:resource="http://purl.org/dc/dcmitype/StillImage" />
        <dc:title></dc:title>
      </cc:Work>
    </rdf:RDF>
  </metadata>
  <g
     inkscape:label="Layer 1"
     inkscape:groupmode="layer"
     id="layer1"
     transform="translate(0,-252)">
    <g
       transform="matrix(0.35277777,0,0,-0.35277777,-111.93546,362.84952)"
       id="g4541">
      <g
         transform="translate(381.0759,270.7591)"
         id="g724">
        <path
           inkscape:connector-curvature="0"
           id="path726"
           style="fill:#216a16;fill-opacity:1;fill-rule:evenodd;stroke:none"
           d="M 0,0 38.34,5.686 46.777,-66.253 0,-76.489 l -46.775,10.236 8.438,71.939 z" />
      </g>
      <g
         transform="translate(381.0759,270.7579)"
         id="g728">
        <path
           inkscape:connector-curvature="0"
           id="path730"
           style="fill:#238913;fill-opacity:1;fill-rule:evenodd;stroke:none"
           d="m 0,0 v -76.489 l -46.775,10.237 8.438,71.939 z" />
      </g>
      <g
         transform="translate(381.0759,290.4928)"
         id="g732">
        <path
           inkscape:connector-curvature="0"
           id="path734"
           style="fill:#238913;fill-opacity:1;fill-rule:evenodd;stroke:none"
           d="M 0,0 3.37,-19.234 0,-36.185 l -46.666,7.991 2.282,20.314 z" />
      </g>
      <g
         transform="translate(425.4629,282.6124)"
         id="g736">
        <path
           inkscape:connector-curvature="0"
           id="path738"
           style="fill:#216a16;fill-opacity:1;fill-rule:evenodd;stroke:none"
           d="m 0,0 -44.387,-6.617 v -21.688 l 46.669,7.99 z" />
      </g>
      <g
         transform="translate(381.0759,275.9949)"
         id="g740">
        <path
           inkscape:connector-curvature="0"
           id="path742"
           style="fill:#34a722;fill-opacity:1;fill-rule:evenodd;stroke:none"
           d="M 0,0 -44.384,6.617 0,14.497 44.387,6.617 Z" />
      </g>
      <g
         transform="translate(421.6812,257.1408)"
         id="g744">
        <path
           inkscape:connector-curvature="0"
           id="path746"
           style="fill:#17540e;fill-opacity:1;fill-rule:evenodd;stroke:none"
           d="m 0,0 -0.475,4.037 -40.13,-6.87 v -4.33 z" />
      </g>
      <g
         transform="translate(381.0759,254.3075)"
         id="g748">
        <path
           inkscape:connector-curvature="0"
           id="path750"
           style="fill:#216a16;fill-opacity:1;fill-rule:evenodd;stroke:none"
           d="M 0,0 -40.128,6.87 -40.561,3.178 0,-4.33 Z" />
      </g>
      <g
         transform="translate(365.176,278.3679)"
         id="g752">
        <path
           inkscape:connector-curvature="0"
           id="path754"
           style="fill:#f1ce41;fill-opacity:1;fill-rule:evenodd;stroke:none"
           d="M 0,0 15.9,2.887 31.802,0 44.608,1.908 25.624,5.99 39.648,7.91 30.05,9.614 15.9,8.112 1.753,9.614 -7.846,7.91 6.178,5.99 -12.805,1.908 Z" />
      </g>
      <g
         transform="translate(352.921,255.1908)"
         id="g756">
        <path
           inkscape:connector-curvature="0"
           id="path758"
           style="fill:#efb735;fill-opacity:1;fill-rule:evenodd;stroke:none"
           d="M 0,0 -4.677,-53.737 8.7,-56.664 12.852,-2.381 Z M -1.004,19.893 -2.362,4.343 0.337,3.88 10.675,2.111 l 1.19,15.873 0.39,5.193 -12.805,1.908 z" />
      </g>
      <g
         transform="translate(397.368,273.1745)"
         id="g760">
        <path
           inkscape:connector-curvature="0"
           id="path762"
           style="fill:#e5a21c;fill-opacity:1;fill-rule:evenodd;stroke:none"
           d="m 0,0 1.191,-15.873 10.338,1.769 2.698,0.463 L 12.87,1.91 12.416,7.102 -0.39,5.193 Z m -0.975,-20.495 4.14,-54.153 13.377,2.927 -4.655,53.495 z" />
      </g>
      <g
         transform="translate(414.5342,298.2053)"
         id="g764">
        <path
           inkscape:connector-curvature="0"
           id="path766"
           style="fill:#f1ce41;fill-opacity:1;fill-rule:evenodd;stroke:none"
           d="m 0,0 c 0,0 -17.467,1.86 -28.424,-9.723 -1.542,-1.631 -3.834,-3.142 -5.012,-5.367 l -2.277,4.475 c 3.852,10.092 13.81,17.89 25.956,19.02 C -5.14,6.666 -3.505,4.296 0,0" />
      </g>
      <g
         transform="translate(414.5354,298.2053)"
         id="g768">
        <path
           inkscape:connector-curvature="0"
           id="path770"
           style="fill:#e5a21c;fill-opacity:1;fill-rule:evenodd;stroke:none"
           d="m 0,0 c 0,0 -4.572,-18.425 -33.437,-15.09 1.122,2.122 2.444,3.951 3.9,5.529 C -18.607,2.287 0,0 0,0" />
      </g>
      <g
         transform="translate(403.5867,297.824)"
         id="g772">
        <path
           inkscape:connector-curvature="0"
           id="path774"
           style="fill:#f9f9f6;fill-opacity:1;fill-rule:evenodd;stroke:none"
           d="M 0,0 C -1.892,-4.687 -11.001,-8.158 -17.157,-7.747 -11.97,-2.943 -5.452,-0.859 0,0" />
      </g>
      <g
         transform="translate(413.9025,296.4824)"
         id="g776">
        <path
           inkscape:connector-curvature="0"
           id="path778"
           style="fill:#c87a12;fill-opacity:1;fill-rule:evenodd;stroke:none"
           d="m 0,0 c -4.239,0.212 -7.987,0.137 -11.237,-0.221 0.392,0.502 0.704,1.024 0.921,1.563 C -4.164,2.311 0.632,1.721 0.632,1.721 0.632,1.721 0.467,1.056 0,0" />
      </g>
      <g
         transform="translate(387.3584,289.032)"
         id="g780">
        <path
           inkscape:connector-curvature="0"
           id="path782"
           style="fill:#c87a12;fill-opacity:1;fill-rule:evenodd;stroke:none"
           d="m 0,0 c -1.95,-1.885 -3.573,-3.905 -4.871,-6.062 -0.456,0.042 -0.919,0.091 -1.389,0.146 1.122,2.121 2.444,3.951 3.9,5.53 0.132,0.144 0.267,0.286 0.402,0.425 0.336,0.349 0.68,0.684 1.03,1.006 C -0.513,1.015 -0.083,1.008 0.358,1.013 0.61,1.017 0.868,1.027 1.127,1.042 0.739,0.699 0.365,0.352 0,0" />
      </g>
      <g
         transform="translate(414.3109,265.0579)"
         id="g784">
        <path
           inkscape:connector-curvature="0"
           id="path786"
           style="fill:#f1ce41;fill-opacity:1;fill-rule:evenodd;stroke:none"
           d="m 0,0 c -10.137,16.757 -31.822,17.912 -31.822,17.912 0.712,1.392 3.019,4.025 3.498,4.536 9.967,2.22 24.443,-2.81 32.235,-11.291 C 2.832,7.071 1.467,3.982 0,0" />
      </g>
      <g
         transform="translate(347.6202,298.2053)"
         id="g788">
        <path
           inkscape:connector-curvature="0"
           id="path790"
           style="fill:#f1ce41;fill-opacity:1;fill-rule:evenodd;stroke:none"
           d="m 0,0 c 0,0 17.467,1.86 28.425,-9.723 1.541,-1.631 3.833,-3.142 5.011,-5.367 l 2.277,4.475 C 31.861,-0.523 21.904,7.275 9.757,8.405 5.14,6.666 3.505,4.296 0,0" />
      </g>
      <g
         transform="translate(347.6189,298.2053)"
         id="g792">
        <path
           inkscape:connector-curvature="0"
           id="path794"
           style="fill:#e5a21c;fill-opacity:1;fill-rule:evenodd;stroke:none"
           d="m 0,0 c 0,0 4.572,-18.425 33.437,-15.09 -1.122,2.122 -2.444,3.951 -3.9,5.529 C 18.607,2.287 0,0 0,0" />
      </g>
      <g
         transform="translate(358.5677,297.824)"
         id="g796">
        <path
           inkscape:connector-curvature="0"
           id="path798"
           style="fill:#f9f9f6;fill-opacity:1;fill-rule:evenodd;stroke:none"
           d="M 0,0 C 1.892,-4.687 11.001,-8.158 17.157,-7.747 11.97,-2.943 5.452,-0.859 0,0" />
      </g>
      <g
         transform="translate(348.251,296.4824)"
         id="g800">
        <path
           inkscape:connector-curvature="0"
           id="path802"
           style="fill:#c87a12;fill-opacity:1;fill-rule:evenodd;stroke:none"
           d="M 0,0 C 4.24,0.212 7.987,0.137 11.238,-0.221 10.846,0.281 10.534,0.803 10.317,1.342 4.165,2.311 -0.631,1.721 -0.631,1.721 -0.631,1.721 -0.467,1.056 0,0" />
      </g>
      <g
         transform="translate(374.796,289.032)"
         id="g804">
        <path
           inkscape:connector-curvature="0"
           id="path806"
           style="fill:#c87a12;fill-opacity:1;fill-rule:evenodd;stroke:none"
           d="M 0,0 C 1.95,-1.885 3.573,-3.905 4.871,-6.062 5.327,-6.02 5.79,-5.971 6.26,-5.916 5.138,-3.795 3.816,-1.965 2.36,-0.386 2.228,-0.242 2.093,-0.1 1.958,0.039 1.622,0.388 1.278,0.723 0.928,1.045 0.513,1.015 0.083,1.008 -0.358,1.013 -0.61,1.017 -0.868,1.027 -1.127,1.042 -0.74,0.699 -0.365,0.352 0,0" />
      </g>
      <g
         transform="translate(347.8435,265.0579)"
         id="g808">
        <path
           inkscape:connector-curvature="0"
           id="path810"
           style="fill:#f1ce41;fill-opacity:1;fill-rule:evenodd;stroke:none"
           d="M 0,0 C 10.137,16.757 31.822,17.912 31.822,17.912 31.11,19.304 28.803,21.937 28.324,22.448 18.357,24.668 3.881,19.638 -3.911,11.157 -2.832,7.071 -1.468,3.982 0,0" />
      </g>
      <g
         transform="translate(396.0713,256.8754)"
         id="g812">
        <path
           inkscape:connector-curvature="0"
           id="path814"
           style="fill:#c87a12;fill-opacity:1;fill-rule:evenodd;stroke:none"
           d="M 0,0 0.321,-4.195 13.183,-1.927 12.825,2.195 2.487,0.426 Z" />
      </g>
      <g
         transform="translate(352.921,255.1908)"
         id="g816">
        <path
           inkscape:connector-curvature="0"
           id="path818"
           style="fill:#e5a21c;fill-opacity:1;fill-rule:evenodd;stroke:none"
           d="M 0,0 12.852,-2.381 13.162,1.685 10.675,2.111 0.337,3.88 Z" />
      </g>
      <g
         transform="translate(366.076,228.4463)"
         id="g820">
        <path
           inkscape:connector-curvature="0"
           id="path822"
           style="fill:#f5f4eb;fill-opacity:1;fill-rule:evenodd;stroke:none"
           d="m 0,0 c 4.498,-0.386 6.436,-3.042 6.41,-7.252 0.384,4.499 3.04,6.436 7.25,6.409 C 9.161,-0.458 7.224,2.198 7.252,6.407 6.866,1.908 4.21,-0.028 0,0 m -24.783,17.859 c 3.263,-0.449 4.577,-2.457 4.402,-5.523 0.446,3.263 2.454,4.577 5.523,4.401 -3.266,0.448 -4.579,2.456 -4.402,5.522 -0.448,-3.264 -2.457,-4.577 -5.523,-4.4 M -26.788,4.506 c 3.801,-0.524 5.33,-2.86 5.127,-6.434 0.519,3.802 2.858,5.332 6.43,5.128 -3.801,0.52 -5.331,2.859 -5.124,6.43 -0.523,-3.801 -2.861,-5.331 -6.433,-5.124 m -1.652,-15.301 c 3.801,-0.524 5.331,-2.862 5.125,-6.433 0.522,3.801 2.861,5.329 6.433,5.125 -3.803,0.521 -5.332,2.86 -5.125,6.431 -0.523,-3.802 -2.861,-5.329 -6.433,-5.123 m 27.416,-7.288 c 4.498,-0.386 6.436,-3.041 6.41,-7.252 0.384,4.499 3.04,6.436 7.249,6.41 -4.498,0.385 -6.435,3.04 -6.407,7.251 -0.386,-4.499 -3.043,-6.436 -7.252,-6.409 m 2.579,33.895 c 3.862,-0.33 5.527,-2.611 5.503,-6.226 0.331,3.863 2.612,5.526 6.227,5.502 C 9.422,15.42 7.758,17.701 7.781,21.315 7.45,17.452 5.17,15.789 1.555,15.812" />
      </g>
      <g
         transform="translate(396.3392,228.4463)"
         id="g824">
        <path
           inkscape:connector-curvature="0"
           id="path826"
           style="fill:#f5f4eb;fill-opacity:1;fill-rule:evenodd;stroke:none"
           d="m 0,0 c -4.497,-0.386 -6.436,-3.042 -6.41,-7.252 -0.385,4.499 -3.041,6.436 -7.25,6.409 4.498,0.385 6.435,3.041 6.408,7.25 C -6.867,1.908 -4.21,-0.028 0,0 m 24.783,17.859 c -3.264,-0.449 -4.578,-2.457 -4.402,-5.523 -0.447,3.263 -2.455,4.577 -5.523,4.401 3.265,0.448 4.578,2.456 4.402,5.522 0.447,-3.264 2.456,-4.577 5.523,-4.4 M 26.787,4.506 c -3.8,-0.524 -5.33,-2.86 -5.125,-6.434 -0.521,3.802 -2.86,5.332 -6.432,5.128 3.801,0.52 5.331,2.859 5.124,6.43 0.523,-3.801 2.861,-5.331 6.433,-5.124 m 1.653,-15.301 c -3.802,-0.524 -5.332,-2.862 -5.126,-6.433 -0.522,3.801 -2.859,5.329 -6.431,5.125 3.801,0.521 5.33,2.86 5.123,6.431 0.524,-3.802 2.862,-5.329 6.434,-5.123 M 1.024,-18.083 c -4.497,-0.386 -6.436,-3.041 -6.41,-7.252 -0.385,4.499 -3.041,6.436 -7.25,6.41 4.499,0.385 6.435,3.04 6.408,7.251 0.385,-4.499 3.042,-6.436 7.252,-6.409 m -2.579,33.895 c -3.862,-0.33 -5.527,-2.611 -5.504,-6.226 -0.331,3.863 -2.612,5.526 -6.226,5.502 3.863,0.332 5.527,2.613 5.503,6.227 0.331,-3.863 2.611,-5.526 6.227,-5.503" />
      </g>
    </g>
  </g>
</svg>
